X: 1
T:Break Yer Bass Drone
R:Reel
C:Gordon Duncan
L:1/8
K:A
uA-B|c3 e fcec|B2 A-B cefe|a3 e faec|Acec cBAB|!
c3 e fcec|B2 A-B cefe|a3 e faec|BcdB A2:||!
uc-d|eaaa ceee|A2 B-A ceec|d2 d-c B2 B-c|dcde fedB|!
ceBe A2 B-A|ceee aecA|dcde faec|dBGB A2:||!
